X:1
T:Title
%%score { ( 1 4 ) | ( 2 3 ) }
L:1/8
Q:1/4=94
M:4/4
K:C
V:1 treble nm="Grand Piano"
V:4 treble 
V:2 bass 
V:3 bass 
V:1
 E>E E>E E>D E>[DF] | [EG]4 [EG]4 | [Ec]>[Ec] [Ec]>[Ec] [Gc]>[Gc] [GB]>[FA] | [EG]6 z2 | %4
w: Haldor~Lillenas * * * * * * *||||
 F>F F>F F>D E>F | [FA]4 [EG]2 [_EA]2 | [DB]2 [Gd]2 [^Fc][GB] [CFA]2 | %7
w: |||
[M:9/8] G2- [EG]- [EG-] [FG]2- [FG] z z |[M:4/4] [EG]>[_E^F] [=FA]>[=EG] [CE]4 | %9
w: ||
 [Ec]>[EB] [Ed]>[Gc] A4 | B>_B =B>c d2 B2 | [Ec]>[EB] [Ec]>[EA] [EG]4 | %12
w: |||
 [EG]>[_E^F] [=FA]>[=EG] [CE]4 | [Ec]>[EB] [Ed]>[Gc] A2 c2 | G2 c2 e2 d2 | c2- [Fc-]2 [Ec]2 z2 |] %16
w: ||||
V:2
 [C,G,C]>[C,G,C] [C,G,C]>[C,G,C] [C,G,C]>[C,F,C] [C,G,C]>[C,G,] | [C,C]4 [C,C]4 | %2
 [C,G,]>[C,G,] [C,G,]>[C,G,] [E,C]>[E,C] [F,C]>[F,C] | [C,C]6 z2 | %4
 [G,B,D]>[G,B,D] [G,B,D]>[G,B,D] [G,B,D]>[G,B,] [G,C]>[G,D] | [C,G,]4 [C,C]2 [C,G,]2 | %6
 [D,G,]2 [D,B,]2 A,D D,2 |[M:9/8] z2 C- C B,2- B, z z |[M:4/4] [C,C]>[C,C] [C,C]>[C,C] [C,G,]4 | %9
 [C,G,]>[C,G,] [C,G,]>[E,C][K:treble] [F,CF]4 | [G,F]>[G,F] [G,F]>[G,A,F] [G,B,F]2 [G,DF]2 | %11
 [C,C]>[C,C] [C,G,]>[C,G,] [C,C]4 | [C,C]>[C,C] [C,C]>[C,C] [C,G,]4 | %13
 [C,G,]>[C,G,] [C,G,]>[E,C] [F,CF]2 [^F,A,_E]2 | [G,CE]2 [G,CE]2 [G,CG]2[K:bass] [G,,B,F]2 | %15
 z2 A,2 G,2 z2 |] %16
V:3
 x8 | x8 | x8 | x8 | x8 | x8 | z4 D,2 z2 |[M:9/8] G,,6- G,, z z |[M:4/4] x8 | x4[K:treble] x4 | %10
 x8 | x8 | x8 | x8 | x6[K:bass] x2 | C,6 z2 |] %16
V:4
 x8 | x8 | x8 | x8 | x8 | x8 | x8 |[M:9/8] .B,3 z3 z3 |[M:4/4] x8 | x8 | x8 | x8 | x8 | x8 | x8 | %15
 [CE]2 z2 z4 |] %16

